public/images/cloudflare.svg

<?xml version="1.0" encoding="UTF-8"?>
<!-- Uploaded to: SVG Repo, www.svgrepo.com, Generator: SVG Repo Mixer Tools -->
<svg width="800px" height="800px" viewBox="0 -70 256 256" version="1.1" xmlns="http://www.w3.org/2000/svg" xmlns:xlink="http://www.w3.org/1999/xlink" preserveAspectRatio="xMidYMid">
    <g>
        <g transform="translate(0.000000, -1.000000)">
            <path d="M202.3569,50.394 L197.0459,48.27 C172.0849,104.434 72.7859,70.289 66.8109,86.997 C65.8149,98.283 121.0379,89.143 160.5169,91.056 C172.5559,91.639 178.5929,100.727 173.4809,115.54 L183.5499,115.571 C195.1649,79.362 232.2329,97.841 233.7819,85.891 C231.2369,78.034 191.1809,85.891 202.3569,50.394 Z" fill="#FFFFFF">
</path>
            <path d="M176.332,109.3483 C177.925,104.0373 177.394,98.7263 174.739,95.5393 C172.083,92.3523 168.365,90.2283 163.585,89.6973 L71.17,88.6343 C70.639,88.6343 70.108,88.1033 69.577,88.1033 C69.046,87.5723 69.046,87.0413 69.577,86.5103 C70.108,85.4483 70.639,84.9163 71.701,84.9163 L164.647,83.8543 C175.801,83.3233 187.486,74.2943 191.734,63.6723 L197.046,49.8633 C197.046,49.3313 197.577,48.8003 197.046,48.2693 C191.203,21.1823 166.772,0.9993 138.091,0.9993 C111.535,0.9993 88.697,17.9953 80.73,41.8963 C75.419,38.1783 69.046,36.0533 61.61,36.5853 C48.863,37.6473 38.772,48.2693 37.178,61.0163 C36.647,64.2033 37.178,67.3903 37.71,70.5763 C16.996,71.1073 0,88.1033 0,109.3483 C0,111.4723 0,113.0663 0.531,115.1903 C0.531,116.2533 1.593,116.7843 2.125,116.7843 L172.614,116.7843 C173.676,116.7843 174.739,116.2533 174.739,115.1903 L176.332,109.3483 Z" fill="#F4811F">
</path>
            <path d="M205.5436,49.8628 L202.8876,49.8628 C202.3566,49.8628 201.8256,50.3938 201.2946,50.9248 L197.5766,63.6718 C195.9836,68.9828 196.5146,74.2948 199.1706,77.4808 C201.8256,80.6678 205.5436,82.7918 210.3236,83.3238 L229.9756,84.3858 C230.5066,84.3858 231.0376,84.9168 231.5686,84.9168 C232.0996,85.4478 232.0996,85.9788 231.5686,86.5098 C231.0376,87.5728 230.5066,88.1038 229.4436,88.1038 L209.2616,89.1658 C198.1076,89.6968 186.4236,98.7258 182.1746,109.3478 L181.1116,114.1288 C180.5806,114.6598 181.1116,115.7218 182.1746,115.7218 L252.2826,115.7218 C253.3446,115.7218 253.8756,115.1908 253.8756,114.1288 C254.9376,109.8798 255.9996,105.0998 255.9996,100.3188 C255.9996,72.7008 233.1616,49.8628 205.5436,49.8628" fill="#FAAD3F">
</path>
        </g>
    </g>
</svg>

<svg height="800" preserveAspectRatio="xMidYMid" viewBox="0 -70 256 256" width="800" xmlns="http://www.w3.org/2000/svg"><g transform="translate(0 -1)"><path d="m202.3569 50.394-5.311-2.124c-24.961 56.164-124.26 22.019-130.235 38.727-.996 11.286 54.227 2.146 93.706 4.059 12.039.583 18.076 9.671 12.964 24.484l10.069.031c11.615-36.209 48.683-17.73 50.232-29.68-2.545-7.857-42.601 0-31.425-35.497z" fill="#fff"/><path d="m176.332 109.3483c1.593-5.311 1.062-10.622-1.593-13.809-2.656-3.187-6.374-5.311-11.154-5.842l-92.415-1.063c-.531 0-1.062-.531-1.593-.531-.531-.531-.531-1.062 0-1.593.531-1.062 1.062-1.594 2.124-1.594l92.946-1.062c11.154-.531 22.839-9.56 27.087-20.182l5.312-13.809c0-.532.531-1.063 0-1.594-5.843-27.087-30.274-47.27-58.955-47.27-26.556 0-49.394 16.996-57.361 40.897-5.311-3.718-11.684-5.843-19.12-5.311-12.747 1.062-22.838 11.684-24.432 24.431-.531 3.187 0 6.374.532 9.56-20.714.531-37.71 17.527-37.71 38.772 0 2.124 0 3.718.531 5.842 0 1.063 1.062 1.594 1.594 1.594h170.489c1.062 0 2.125-.531 2.125-1.594z" fill="#f4811f"/><path d="m205.5436 49.8628h-2.656c-.531 0-1.062.531-1.593 1.062l-3.718 12.747c-1.593 5.311-1.062 10.623 1.594 13.809 2.655 3.187 6.373 5.311 11.153 5.843l19.652 1.062c.531 0 1.062.531 1.593.531.531.531.531 1.062 0 1.593-.531 1.063-1.062 1.594-2.125 1.594l-20.182 1.062c-11.154.531-22.838 9.56-27.087 20.182l-1.063 4.781c-.531.531 0 1.593 1.063 1.593h70.108c1.062 0 1.593-.531 1.593-1.593 1.062-4.249 2.124-9.029 2.124-13.81 0-27.618-22.838-50.456-50.456-50.456" fill="#faad3f"/></g></svg>
